X: 39542
T: Taylor's Measure, The
R: reel
M: 4/4
K: Dmajor
"D"D/D/D FA D/D/D FA|dAfd "A"ec A/G/F/E/|
"D"D/D/D FA dAfd|"D"af"A"ge "D"d2 D2:|
|:"D"d/d/d fa "A"gecg|"D"fdaf "A"ecAc|
"Bm"d/d/d fa "G"d/d/d eg|"D"fd"A"ec "D"d2 D2:|

